9/img/favorite-panarama.svg

<svg width="140" height="36" viewBox="0 0 140 36" fill="none" xmlns="http://www.w3.org/2000/svg">
<rect width="140" height="36" fill="#D22856"/>
<path d="M26.9316 22H25.1211V14.9453H21.9688V22H20.1523V13.4336H26.9316V22ZM34.3379 22L33.7168 19.9609H30.5938L29.9727 22H28.0156L31.0391 13.3984H33.2598L36.2949 22H34.3379ZM33.2832 18.4375C32.709 16.5898 32.3848 15.5449 32.3105 15.3027C32.2402 15.0605 32.1895 14.8691 32.1582 14.7285C32.0293 15.2285 31.6602 16.4648 31.0508 18.4375H33.2832ZM44.3984 22H42.5879V18.3027H39.1953V22H37.3789V13.4336H39.1953V16.791H42.5879V13.4336H44.3984V22ZM54.3418 17.7051C54.3418 19.123 53.9902 20.2129 53.2871 20.9746C52.584 21.7363 51.5762 22.1172 50.2637 22.1172C48.9512 22.1172 47.9434 21.7363 47.2402 20.9746C46.5371 20.2129 46.1855 19.1191 46.1855 17.6934C46.1855 16.2676 46.5371 15.1797 47.2402 14.4297C47.9473 13.6758 48.959 13.2988 50.2754 13.2988C51.5918 13.2988 52.5977 13.6777 53.293 14.4355C53.9922 15.1934 54.3418 16.2832 54.3418 17.7051ZM48.0898 17.7051C48.0898 18.6621 48.2715 19.3828 48.6348 19.8672C48.998 20.3516 49.541 20.5938 50.2637 20.5938C51.7129 20.5938 52.4375 19.6309 52.4375 17.7051C52.4375 15.7754 51.7168 14.8105 50.2754 14.8105C49.5527 14.8105 49.0078 15.0547 48.6406 15.543C48.2734 16.0273 48.0898 16.748 48.0898 17.7051ZM57.9336 17.4648H58.5312C59.0898 17.4648 59.5078 17.3555 59.7852 17.1367C60.0625 16.9141 60.2012 16.5918 60.2012 16.1699C60.2012 15.7441 60.084 15.4297 59.8496 15.2266C59.6191 15.0234 59.2559 14.9219 58.7598 14.9219H57.9336V17.4648ZM62.0352 16.1055C62.0352 17.0273 61.7461 17.7324 61.168 18.2207C60.5938 18.709 59.7754 18.9531 58.7129 18.9531H57.9336V22H56.1172V13.4336H58.8535C59.8926 13.4336 60.6816 13.6582 61.2207 14.1074C61.7637 14.5527 62.0352 15.2188 62.0352 16.1055ZM68.8965 22L68.2754 19.9609H65.1523L64.5312 22H62.5742L65.5977 13.3984H67.8184L70.8535 22H68.8965ZM67.8418 18.4375C67.2676 16.5898 66.9434 15.5449 66.8691 15.3027C66.7988 15.0605 66.748 14.8691 66.7168 14.7285C66.5879 15.2285 66.2188 16.4648 65.6094 18.4375H67.8418ZM75.5645 22L73.502 15.2793H73.4492C73.5234 16.6465 73.5605 17.5586 73.5605 18.0156V22H71.9375V13.4336H74.4102L76.4375 19.9844H76.4727L78.623 13.4336H81.0957V22H79.4023V17.9453C79.4023 17.7539 79.4043 17.5332 79.4082 17.2832C79.416 17.0332 79.4434 16.3691 79.4902 15.291H79.4375L77.2285 22H75.5645ZM88.502 22L87.8809 19.9609H84.7578L84.1367 22H82.1797L85.2031 13.3984H87.4238L90.459 22H88.502ZM87.4473 18.4375C86.873 16.5898 86.5488 15.5449 86.4746 15.3027C86.4043 15.0605 86.3535 14.8691 86.3223 14.7285C86.1934 15.2285 85.8242 16.4648 85.2148 18.4375H87.4473ZM93.6406 20.4883H94.3027C94.8691 19.3555 95.3164 18.2246 95.6445 17.0957C95.9727 15.9629 96.2168 14.7422 96.377 13.4336H101.369V20.4883H102.512V24.4961H100.76V22H95.3926V24.4961H93.6406V20.4883ZM97.8184 14.9453C97.6934 15.8398 97.4844 16.7871 97.1914 17.7871C96.9023 18.7871 96.5762 19.6875 96.2129 20.4883H99.5586V14.9453H97.8184ZM110.855 22H109.045V18.3027H105.652V22H103.836V13.4336H105.652V16.791H109.045V13.4336H110.855V22ZM115.906 18.7129L113.902 22H111.887L114.324 18.2324C113.84 18.0371 113.469 17.7363 113.211 17.3301C112.953 16.9199 112.824 16.4375 112.824 15.8828C112.824 15.0977 113.102 14.4941 113.656 14.0723C114.215 13.6465 115.016 13.4336 116.059 13.4336H118.848V22H117.031V18.7129H115.906ZM117.031 14.9219H116.135C115.666 14.9219 115.303 15.0059 115.045 15.1738C114.787 15.3418 114.658 15.6211 114.658 16.0117C114.658 16.3906 114.783 16.6895 115.033 16.9082C115.283 17.127 115.666 17.2363 116.182 17.2363H117.031V14.9219Z" fill="white"/>
</svg>

<svg width="140" height="36" fill="none" xmlns="http://www.w3.org/2000/svg"><path fill="#D22856" d="M0 0h140v36H0z"/><path d="M26.932 22h-1.81v-7.055h-3.153V22h-1.817v-8.566h6.78V22Zm7.406 0-.621-2.04h-3.123L29.973 22h-1.957l3.023-8.602h2.22L36.296 22h-1.957Zm-1.055-3.563-.973-3.134a9.912 9.912 0 0 1-.152-.575c-.129.5-.498 1.737-1.107 3.71h2.232ZM44.398 22h-1.81v-3.697h-3.393V22H37.38v-8.566h1.816v3.357h3.393v-3.357h1.81V22Zm9.944-4.295c0 1.418-.352 2.508-1.055 3.27-.703.761-1.71 1.142-3.023 1.142-1.313 0-2.32-.38-3.024-1.142-.703-.762-1.055-1.856-1.055-3.282 0-1.425.352-2.513 1.055-3.263.707-.754 1.719-1.131 3.035-1.131 1.317 0 2.323.379 3.018 1.136.7.758 1.049 1.848 1.049 3.27Zm-6.252 0c0 .957.181 1.678.545 2.162.363.485.906.727 1.629.727 1.449 0 2.173-.963 2.173-2.889 0-1.93-.72-2.894-2.162-2.894-.722 0-1.267.244-1.634.732-.368.484-.551 1.205-.551 2.162Zm9.844-.24h.597c.559 0 .977-.11 1.254-.328.278-.223.416-.545.416-.967 0-.426-.117-.74-.351-.943-.23-.204-.594-.305-1.09-.305h-.826v2.543Zm4.101-1.36c0 .922-.289 1.627-.867 2.116-.574.488-1.393.732-2.455.732h-.78V22h-1.816v-8.566h2.736c1.04 0 1.829.224 2.368.673.543.446.814 1.112.814 1.998ZM68.897 22l-.622-2.04h-3.123l-.62 2.04h-1.958l3.024-8.602h2.22L70.853 22h-1.956Zm-1.055-3.563c-.574-1.847-.899-2.892-.973-3.134a9.83 9.83 0 0 1-.152-.575c-.13.5-.498 1.737-1.108 3.71h2.233ZM75.564 22l-2.062-6.72h-.053c.074 1.367.112 2.279.112 2.736V22h-1.624v-8.566h2.473l2.028 6.55h.035l2.15-6.55h2.473V22h-1.694v-4.055c0-.191.002-.412.006-.662.008-.25.035-.914.082-1.992h-.052L77.228 22h-1.663Zm12.938 0-.621-2.04h-3.123L84.137 22H82.18l3.023-8.602h2.22L90.46 22h-1.957Zm-1.055-3.563c-.574-1.847-.898-2.892-.972-3.134a9.83 9.83 0 0 1-.153-.575c-.129.5-.498 1.737-1.107 3.71h2.232Zm6.194 2.051h.662a20.186 20.186 0 0 0 1.341-3.392c.329-1.133.573-2.354.733-3.662h4.992v7.054h1.143v4.008h-1.752V22h-5.367v2.496H93.64v-4.008Zm4.177-5.543a19.976 19.976 0 0 1-.627 2.842c-.289 1-.615 1.9-.978 2.701h3.346v-5.543h-1.74ZM110.855 22h-1.81v-3.697h-3.393V22h-1.816v-8.566h1.816v3.357h3.393v-3.357h1.81V22Zm5.051-3.287L113.902 22h-2.015l2.437-3.768a2.292 2.292 0 0 1-1.113-.902c-.258-.41-.387-.892-.387-1.447 0-.785.278-1.389.832-1.81.559-.427 1.36-.64 2.403-.64h2.789V22h-1.817v-3.287h-1.125Zm1.125-3.791h-.896c-.469 0-.832.084-1.09.252-.258.168-.387.447-.387.838 0 .379.125.677.375.896.25.219.633.328 1.149.328h.849v-2.314Z" fill="#fff"/></svg>
